X:1
T:Title
L:1/8
M:4/4
K:Eb
V:1 treble nm="Grand Piano"
V:1
 z4 z2[Q:1/4=100] GA | c2 BA G2 GG- | GG c2 B3 G | AA c2 B3 B | d2 c2 B2 Ac | c2 B2 A3 G | %6
 AB A2 G2 GA | B2 AG G2 GA | B2 A2 G3 G | B2 AG F2 FG | A2 GF F2 FG | A2 GF F3 D | EFGA G4 | %13
 G c2 G c2 B2- | BBdc B4- | BAcB A4- | AGBA G4 | G c2 G c2 B2- | BBdc B4- | BAcB A4- | %20
 AGBA G2 z2 |] %21

